X:1
T:Fete Champetre
M:2/4
L:1/16
K:G
G-A| B2B2 B2A-G| c4 c2B-A| B2B2c-BA-G|B2-d2 d2|G-A| B2B2c-BA-G| c4 c2 BA|\
B-cd-B A3 G|E2-G2 G2|B-c| d2D2 D2E-=F| E2D-E C2B-c| d2D2 d2D2|B2-d2 d2|\
B-c| d2D2 D2E-=F|G-=FE-D C2c2|B-cd-B A3 G|E2-G2 G2||
